X: 3
T: Far From Home
R: reel
M: 4/4
L: 1/8
K: Gmaj
(BA)|GEDE G2 (GA)|B2 ~(BA) (Bc) d2|GEDE G2 (GB)|AGAB AGEF|
~(GE)(DE) G2 GA|B2 ~(BA) (Bc) d2|edef gedc|BGAF G2||
(3def|g2 ~(ge) f2 (fd)|edef edBd|~(ge)dB G2 B2|~(AG)AB AG E2|
~(GE)DE G2 GA|B2 ~(BA) (Bc) d2|edef gedc|BGAF G2||


Tune 1164	Setting 1164

